X: 20462
M: 6/8
L: 1/8
K: D
|: a |\
f2a f2a | dda cca | ffa eea | ^gfg a2A |\
{e}dcd {e}dcd | gfg f2d | efe {d}cBc | {c}d2D d2 :|


